X: 20521
Q: "Adagio"
M: 2/4
L: 1/8
K: G
(B>A) (B>A) | B>c d z/G/ |\
("_>"g2 {f}e>d | d2) zz/"_PP"d/ | d2 {d}Tc>B | B2 zz/G/ |\
("_>"g2 {f}e>d) | d2 Hz B | "^lent."dc B{B}A | G2 z"_F."G "^Allegro."|
.c.c.c.c | .B.B.B.B | .e.e.e.e | .d.d.d.d |\
.c.c .B.B | .A.A .B.d | ("_P."gd) (cB) | (HB2 {cBABcdefg}HA)D/>D/ |\
(FE) z>G | c2 z>"_P."A |\
(GF) z"_F."D | d2 z2 "^Adagio."| ("_P."G2 {A/G/F/G/B2}HA>G) | G2 z2 |\
(B2 {d}c>B | B2) zG "^cresc."| d2 z"_FF."G | e2 Hz2 |\
("_P."HB2 {B}THA>G | G2) z |]


